src/assets/skills/sass-icon.svg

<svg width="122" height="92" viewBox="0 0 122 92" fill="none" xmlns="http://www.w3.org/2000/svg">
<g clip-path="url(#clip0_35_142)">
<path fill-rule="evenodd" clip-rule="evenodd" d="M105.022 52.8268C100.753 52.8467 97.0599 53.8855 93.9622 55.4137C92.8204 53.1364 91.6787 51.1488 91.4801 49.6606C91.2617 47.9326 91.0036 46.8839 91.2617 44.8163C91.5198 42.7588 92.7112 39.8323 92.7112 39.5926C92.6914 39.3729 92.4531 38.3241 89.9909 38.2941C87.5386 38.2742 85.4139 38.7736 85.1756 39.4228C84.9373 40.072 84.4608 41.5602 84.153 43.0884C83.7261 45.3457 79.2484 53.3262 76.6968 57.5212C75.8628 55.8931 75.1479 54.4548 75.0089 53.3062C74.7905 51.5783 74.5324 50.5295 74.7905 48.462C75.0486 46.4044 76.2401 43.4779 76.2401 43.2382C76.2202 43.0185 75.9819 41.9697 73.5197 41.9398C71.0674 41.9198 68.9427 42.4192 68.7044 43.0684C68.4661 43.7177 68.208 45.2458 67.6818 46.7341C67.1854 48.2223 61.2283 61.5463 59.6795 65.0222C58.8952 66.8001 58.2002 68.2084 57.7038 69.1672C57.2073 70.1261 57.6839 69.2371 57.6343 69.337C57.2073 70.156 56.9691 70.6055 56.9691 70.6055V70.6255C56.6315 71.2248 56.2741 71.8041 56.1152 71.8041C55.9961 71.8041 55.7578 70.196 56.1649 67.9886C57.0485 63.3642 59.193 56.1428 59.1632 55.8831C59.1632 55.7633 59.5703 54.4948 57.7832 53.8456C56.0457 53.1963 55.4202 54.275 55.2812 54.275C55.1422 54.275 55.0231 54.6546 55.0231 54.6546C55.0231 54.6546 56.9492 46.5243 51.3297 46.5243C47.8052 46.5243 42.9403 50.3797 40.5376 53.9055C39.0086 54.7445 35.772 56.5223 32.3367 58.4101C31.0262 59.1292 29.666 59.8983 28.3852 60.5875L28.1271 60.2978C21.3063 53.0165 8.69724 47.8427 9.22345 38.0145C9.41209 34.4388 10.6531 25.02 33.4388 13.6137C52.0942 4.26483 67.0364 6.83176 69.6377 12.5349C73.331 20.6852 61.6553 35.8371 42.2552 38.0145C34.8685 38.8535 30.9865 35.9769 30.0036 34.8982C28.9809 33.7696 28.832 33.7196 28.4547 33.9394C27.8392 34.2789 28.2165 35.2777 28.4547 35.877C29.0306 37.3852 31.4134 40.072 35.4642 41.4104C39.0185 42.589 47.686 43.2282 58.1704 39.1531C69.9157 34.5786 79.0895 21.8638 76.3989 11.2465C73.6587 0.449394 55.8372 -3.10636 38.9888 2.91644C28.9611 6.51214 18.0895 12.1254 10.2759 19.4866C0.982889 28.2062 -0.496441 35.8271 0.119119 38.9933C2.28351 50.2898 17.7519 57.641 23.9472 63.0845C23.6395 63.2543 23.3515 63.4241 23.0934 63.5639C19.9957 65.1021 8.20083 71.3047 5.24217 77.8768C1.90623 85.3079 5.76837 90.6615 8.33982 91.3807C16.3024 93.608 24.4536 89.6028 28.8618 83.0107C33.2501 76.4186 32.7239 67.8588 30.6985 63.9535L30.629 63.8136L33.0615 62.3754C34.6302 61.4365 36.179 60.5775 37.5392 59.8384C36.7747 61.9259 36.2287 64.3929 35.9407 67.9886C35.6032 72.2036 37.3208 77.6771 39.5845 79.8345C40.5872 80.7734 41.7786 80.7933 42.5133 80.7933C45.1344 80.7933 46.3258 78.6159 47.6364 75.9991C49.2547 72.8129 50.6844 69.1173 50.6844 69.1173C50.6844 69.1173 48.8973 79.1153 53.782 79.1153C55.5692 79.1153 57.3563 76.7881 58.1704 75.5896V75.6095C58.1704 75.6095 58.22 75.5396 58.3094 75.3698C58.4087 75.22 58.508 75.0702 58.5973 74.9104V74.8604C59.3122 73.6119 60.9106 70.7653 63.2934 66.041C66.3712 59.9483 69.32 52.3274 69.32 52.3274C69.32 52.3274 69.6079 54.1951 70.4915 57.2615C71.0177 59.0793 72.1595 61.0769 73.0431 63.0146C72.3283 64.0234 71.9013 64.5927 71.9013 64.5927L71.9212 64.6127C71.3454 65.3818 70.7099 66.1908 70.0348 67.0098C67.6024 69.9363 64.6933 73.2623 64.3161 74.2212C63.8594 75.3498 63.9586 76.1888 64.8423 76.858C65.4876 77.3375 66.6294 77.4373 67.8406 77.3375C70.0348 77.1976 71.5538 76.6383 72.3183 76.3087C73.5097 75.8792 74.8699 75.23 76.1805 74.2711C78.5633 72.4933 80.0128 69.9763 79.8738 66.6203C79.8043 64.7725 79.2086 62.9547 78.464 61.2267C78.6824 60.9171 78.8909 60.6075 79.1094 60.2679C82.8722 54.7345 85.7812 48.6418 85.7812 48.6418C85.7812 48.6418 86.0692 50.5095 86.9528 53.5759C87.4095 55.134 88.313 56.832 89.1172 58.51C85.5926 61.4065 83.3786 64.7625 82.6141 66.9699C81.2042 71.045 82.3063 72.8928 84.3813 73.3223C85.3146 73.512 86.645 73.0825 87.6478 72.6531C88.8888 72.2435 90.388 71.5544 91.768 70.5156C94.1509 68.7377 96.4344 66.2707 96.3152 62.9447C96.2458 61.4065 95.8387 59.8983 95.2926 58.46C98.291 57.2115 102.183 56.4924 107.107 57.0917C117.711 58.3402 119.806 65.0022 119.409 67.7789C119.002 70.5556 116.788 72.0937 116.053 72.5732C115.318 73.0326 115.08 73.1924 115.149 73.532C115.249 74.0314 115.576 74.0114 116.222 73.9116C117.105 73.7717 121.801 71.6343 121.99 66.5004C122.278 59.9483 116.053 52.7569 105.022 52.8268ZM23.2423 80.5636C19.7376 84.419 14.8032 85.8872 12.7083 84.6387C10.4446 83.3203 11.3283 77.6371 15.6372 73.542C18.2583 71.045 21.6637 68.7477 23.9075 67.3294C24.404 67.0198 25.1684 66.5603 26.0719 66.011C26.2109 65.9111 26.3102 65.8712 26.3102 65.8712C26.479 65.7713 26.6676 65.6514 26.8563 65.5316C28.4547 71.3846 26.9357 76.5085 23.2423 80.5636ZM48.8576 63.0445C47.6463 66.041 45.0649 73.7418 43.5161 73.3023C42.1857 72.9427 41.3716 67.1197 43.258 61.3666C44.2111 58.47 46.2365 55.0142 47.4279 53.6758C49.354 51.5183 51.4588 50.7992 51.9751 51.6881C52.6006 52.8268 49.6221 61.1668 48.8576 63.0445ZM69.9951 73.2024C69.4689 73.4621 68.9923 73.6618 68.7838 73.512C68.615 73.4122 69.0023 73.0526 69.0023 73.0526C69.0023 73.0526 71.6432 70.196 72.6956 68.8776C73.2913 68.1085 74.0062 67.2196 74.7706 66.2208V66.5104C74.7607 69.9663 71.4744 72.2735 69.9951 73.2024ZM86.2975 69.4669C85.9202 69.1772 85.9599 68.2883 87.2506 65.5116C87.747 64.4129 88.8987 62.5651 90.8745 60.8172C91.1128 61.5364 91.2518 62.2355 91.2319 62.8748C91.2021 67.1896 88.1541 68.7977 86.2975 69.4669Z" fill="#CF649A"/>
</g>
<defs>
<clipPath id="clip0_35_142">
<rect width="122" height="92" fill="white"/>
</clipPath>
</defs>
</svg>

<svg xmlns="http://www.w3.org/2000/svg" width="122" height="92" fill="none"><g clip-path="url(#a)"><path fill="#CF649A" fill-rule="evenodd" d="M105.022 52.827c-4.269.02-7.962 1.059-11.06 2.587-1.142-2.278-2.283-4.265-2.482-5.753-.218-1.728-.476-2.777-.218-4.845.258-2.057 1.45-4.984 1.45-5.223-.02-.22-.259-1.269-2.721-1.299-2.452-.02-4.577.48-4.815 1.129-.239.649-.715 2.137-1.023 3.665-.427 2.258-4.905 10.238-7.456 14.433-.834-1.628-1.55-3.066-1.688-4.215-.219-1.728-.477-2.776-.219-4.844.259-2.058 1.45-4.984 1.45-5.224-.02-.22-.258-1.268-2.72-1.298-2.453-.02-4.577.48-4.816 1.128-.238.65-.496 2.178-1.022 3.666-.497 1.488-6.454 14.812-8.003 18.288a74.45 74.45 0 0 1-1.975 4.145c-.497.96-.02.07-.07.17-.427.819-.665 1.269-.665 1.269v.02c-.337.599-.695 1.178-.854 1.178-.119 0-.357-1.608.05-3.815.883-4.625 3.028-11.846 2.998-12.106 0-.12.407-1.388-1.38-2.037-1.737-.65-2.363.429-2.502.429-.139 0-.258.38-.258.38s1.926-8.13-3.693-8.13c-3.525 0-8.39 3.855-10.792 7.38l-8.201 4.505c-1.31.72-2.671 1.488-3.952 2.178l-.258-.29c-6.82-7.282-19.43-12.455-18.904-22.284.19-3.575 1.43-12.994 24.216-24.4 18.655-9.35 33.597-6.782 36.199-1.08 3.693 8.151-7.983 23.303-27.383 25.48-7.387.84-11.269-2.037-12.251-3.116-1.023-1.128-1.172-1.178-1.55-.959-.615.34-.238 1.339 0 1.938.577 1.508 2.96 4.195 7.01 5.533 3.555 1.179 12.222 1.818 22.706-2.257C69.916 34.58 79.09 21.863 76.4 11.246 73.659.45 55.837-3.106 38.989 2.916c-10.028 3.596-20.9 9.21-28.713 16.57C.983 28.207-.496 35.828.119 38.994 2.284 50.29 17.752 57.641 23.947 63.084c-.307.17-.595.34-.854.48-3.097 1.538-14.892 7.74-17.85 14.313-3.337 7.43.525 12.785 3.097 13.504 7.962 2.227 16.114-1.778 20.522-8.37 4.388-6.592 3.862-15.152 1.837-19.057l-.07-.14 2.433-1.439a124.06 124.06 0 0 1 4.477-2.537c-.764 2.088-1.31 4.555-1.598 8.15-.338 4.216 1.38 9.69 3.643 11.847 1.003.938 2.195.958 2.93.958 2.62 0 3.812-2.177 5.122-4.794 1.619-3.186 3.048-6.882 3.048-6.882s-1.787 9.998 3.098 9.998c1.787 0 3.574-2.327 4.388-3.525v.02s.05-.07.14-.24c.099-.15.198-.3.287-.46v-.05c.715-1.248 2.314-4.095 4.696-8.819 3.078-6.093 6.027-13.714 6.027-13.714s.288 1.868 1.172 4.934c.526 1.818 1.667 3.816 2.551 5.754-.715 1.008-1.142 1.578-1.142 1.578l.02.02a65.714 65.714 0 0 1-1.886 2.397c-2.433 2.926-5.342 6.252-5.719 7.211-.457 1.129-.357 1.968.526 2.637.646.48 1.787.58 2.999.48 2.194-.14 3.713-.7 4.477-1.03a15.426 15.426 0 0 0 3.862-2.037c2.383-1.778 3.833-4.295 3.694-7.65-.07-1.849-.665-3.666-1.41-5.394.218-.31.427-.62.645-.96 3.763-5.533 6.672-11.625 6.672-11.625s.288 1.867 1.172 4.934c.456 1.558 1.36 3.256 2.164 4.934-3.524 2.897-5.738 6.253-6.503 8.46-1.41 4.075-.308 5.923 1.767 6.352.934.19 2.264-.24 3.267-.669a14.552 14.552 0 0 0 4.12-2.137c2.383-1.778 4.666-4.245 4.547-7.571-.07-1.538-.476-3.047-1.022-4.485 2.998-1.248 6.89-1.968 11.814-1.368 10.604 1.248 12.699 7.91 12.302 10.687-.407 2.777-2.621 4.315-3.356 4.794-.735.46-.973.62-.904.959.1.5.427.48 1.073.38.883-.14 5.579-2.278 5.768-7.412.288-6.552-5.937-13.743-16.968-13.673Zm-81.78 27.737c-3.504 3.855-8.439 5.323-10.534 4.075-2.263-1.319-1.38-7.002 2.93-11.097 2.62-2.497 6.026-4.794 8.27-6.213.496-.31 1.26-.769 2.164-1.318.139-.1.238-.14.238-.14.169-.1.358-.22.546-.34 1.599 5.854.08 10.977-3.614 15.033Zm25.616-17.52c-1.212 2.997-3.793 10.698-5.342 10.258-1.33-.36-2.144-6.182-.258-11.935.953-2.897 2.978-6.353 4.17-7.691 1.926-2.158 4.03-2.877 4.547-1.988.626 1.139-2.353 9.479-3.117 11.356Zm21.137 10.158c-.526.26-1.003.46-1.211.31-.169-.1.218-.46.218-.46s2.641-2.856 3.694-4.174c.595-.77 1.31-1.658 2.075-2.657v.29c-.01 3.455-3.297 5.763-4.776 6.691Zm16.302-3.735c-.377-.29-.337-1.179.954-3.955.496-1.1 1.648-2.947 3.623-4.695.239.72.378 1.419.358 2.058-.03 4.315-3.078 5.923-4.934 6.592Z" clip-rule="evenodd"/></g><defs><clipPath id="a"><path fill="#fff" d="M0 0h122v92H0z"/></clipPath></defs></svg>
